src/lib/packages/icons/src/assets/filled/book-open-bookmark.svg

<svg width="24" height="24" viewBox="0 0 24 24" fill="none" xmlns="http://www.w3.org/2000/svg">
<path d="M11.1899 5.66598C11.2289 5.71998 11.25 5.78697 11.25 5.85397V19.0479C11.25 19.2729 11.013 19.4089 10.812 19.3089C8.42701 18.1189 6.03393 18.122 3.64893 18.801C3.31893 18.891 2.99902 18.661 2.99902 18.331V5.32101C2.99902 5.12801 3.10994 4.946 3.28394 4.863C4.92594 4.081 6.667 3.85992 8.479 4.07992C9.604 4.21592 10.5669 4.81098 11.1899 5.66598ZM20.7151 4.863C19.9961 4.52 19.255 4.30298 18.5 4.16598V9.99996L17 9.13998L15.5 9.99996V4.08395C14.385 4.22395 13.4291 4.816 12.8101 5.665C12.7711 5.719 12.75 5.78599 12.75 5.85299V19.047C12.75 19.272 12.987 19.4079 13.188 19.3079C15.573 18.1179 17.9661 18.121 20.3511 18.8C20.6811 18.89 21.001 18.6599 21.001 18.3299V5.31991C21 5.12691 20.8891 4.945 20.7151 4.863Z" fill="currentColor"/>
</svg>

<svg xmlns="http://www.w3.org/2000/svg" width="24" height="24" fill="none"><path fill="currentColor" d="M11.19 5.666c.039.054.06.121.06.188v13.194c0 .225-.237.36-.438.26-2.385-1.19-4.778-1.186-7.163-.507-.33.09-.65-.14-.65-.47V5.321a.51.51 0 0 1 .285-.458c1.642-.782 3.383-1.003 5.195-.783a3.925 3.925 0 0 1 2.71 1.586Zm9.525-.803a8.709 8.709 0 0 0-2.215-.697V10L17 9.14l-1.5.86V4.084a3.923 3.923 0 0 0-2.69 1.581.324.324 0 0 0-.06.188v13.194c0 .225.237.36.438.26 2.385-1.19 4.778-1.186 7.163-.507.33.09.65-.14.65-.47V5.32a.51.51 0 0 0-.286-.457Z"/></svg>
